X:1
T: Bonny Lass of Aberdeen
M: C|
Z:
R: reel
C: R-28
K: D
A2| "G"B2Bc "A"A2 (3ABc| "D"dcdA "G"G2FG| "A"A2AB    cABG| "D"F2DD D2GA|
    "G"B2Bc "A"A2 (3ABc| "D"dcdA "G"G2FE| "D"DEFG "A"ABAG| "D"F2DD D2 :|
\
|: de| "D"fefg    a2gf| "A"gfga g2fe| "D"defg    abag|    f2d2 defg|
       "D"agfa "G"g2fe| "D"fdcA f2ed| "A"cABA "G"GBAG| "D"F2DD D2 :|
%
